X: 20701
T: Johnny An Gabha
R: polka
M: 2/4
K: Dmajor
|:A|D2 FA|B>A FA|B2 B>c|BA FA|
DC/D/ FA|BA F/G/A|Be Bc|ed d:|
|:A|d2 c2|BA FA|Be B>c|BA FA|
de/d/ cd/c/|BA FA|Be B>c|ed d:|

